X: 09004
T: ANITA'S JIG
C: Bob McQuillen 17 Nov 92
B: Bob's Note Book 9 #4
R: jig
Z: 2019 John Chambers <jc:trillian.mit.edu>
M: 6/8
L: 1/8
K: Em
D \
| EB,E GBG | EGB AFD | EB,E GBd | edB  ABd |
| ege  dBG | EGB A2B | GBG  AGE | DB,D E2 :|
|: d \
| ede dBA | BGB ABd | ege dBG | AGE DB,D |
| EDE GEG | AGA B2e | dBG ABA | GEE E2  :|
%%begintext align
%% When Anita Anderson isn't playing
%% super piano back-up for Rex Blazer's fiddling, she can also
%% be heard singing her heart out in a terrific group called the
%% "'S' Curves" with Wendy and Juanita - Frankly, I'm not sure
%% you West Coasters know how lucky you are! WOW! And then
%% of course, there's Dina, too - I could go on like this for eight
%% more pages, at least! - Do you suppose you can get Rex to play this
%% for you, Anita? I hope so!
%%endtext

%%sep 1 1 500

%%sep 1 1 500

